X: 411
T: Bluegrass Twist
C:Bill Monroe
B: jims roots
M:C
L:1/8
Q: 1/4=100
K:G
V:1 
DED | "D"=F/^F/d =F^F d4 | g_bg=f dc^AB | "G"G2 [G,G][G,G] D/_D/C ^A,/B,/G |
gggg ggg_b | g=fdc  y{_B}=BG=F{_E}=E | "C"CCEG (^AB)GE |
CCEG y{_B}=Bdc{_B}=B | "G"G2 [G,G][G,G] D/_D/C ^A,/B,/G | [G,2G][G,2G] [G,2G][G,G]D |
"D"=F/^F/d =F^F d2d2 | g_bg{=f}^f dc^AB | "G"G2GD =F/E/D =F/E/D | [G,8G] |]
V:G,4G 
-[G,G] [G,D][G,E][G,D] ||[P:Theme] "G"[G,G][G,G] [G,G][G,G] [G,G][G,G] [G,G][G,G] | {_B}=BG y{_B}=BG y{_B}=BG Bd |
% abcbook-tune_id 6298c24539a022f6ad2aa69e


% abcbook-boost 0
% abcbook-tablature 
% abcbook-transpose 
% abcbook-lastupdated 1654178373417
% abcbook-soundfonts 
% abcbook-repeats 1


